X:2
T:Kopanitsa a la Turka
R:kopanitsa
S:Serdar Deli on Youtube. Variations from Balkanatolia.
H:Originally played in Ephr #g, C#phr ^d or Aphr ^c but transposed for
H:simple system flute.
O:Bulgaria
Z:id:hn-kopanitsa-2
M:2+2+3+2+2/16
L:1/16
Q:1/8=220
K:Bphr ^d =c
Bcde fge f{e}ff{e}f | fa{f}gf ede f{e}ff{e}f |
   Bcde fge f{e}ff{e}f |1 df{d}ed cBA BFBF :|2 df{d}ed cBA Bz3 ||
|: Ja4-a^gb a=g{e}fe | fg{f}g{f}g gfa {f}gfed | defg a^gb a=gfe |
   [1 fgfe {c}d2c BFBz :|2 fgge {c}d2c Bz3 ||
|: df{ef}ed cBA Bcde |1 df{ef}ed cBA BFB2 :|2 df{ef}ed cBA Bz3 ||
|: def{e}f def def{e}f | def{e}f edc Bcde | def{e}f def def{e}f |
   [1 def{e}f edc BFBz :|2 def{e}f edc Bz3 ||
P:variations for part 2
|: Bcde fge f{e}ff{e}f | fa{f}gf ede f{e}ff{e}f |
   Bcde fge f{e}ff{e}f |1 df{d}ed cBA BFBF :|2 df{d}ed cBA Bz3 ||
|: ^gaa2 a^gb a=g{e}fe | fgg2 gfa {f}gfed | defg a2g f2e2 |
   [1 d2ed cBA BFBz :|2 d2ed cBA Bz3 ||
|: df{ef}ed cBA Bcde | df{ef}ed cBA BFB2 | df{ef}ed cBA Bcde |
   [1 df{ef}ed cBA BFBz :|2 df{ef}ed cBA Bz3 ||
|: def{e}f def def{e}f | def{e}f edc Bcde | def{e}f def def{e}f |
   [1 def{e}f edc BFBz :|2 def{e}f edc Bz3 ||

